icons/desktop/16/svg/sidebar-expanded-right-16.svg

<svg width="16" height="16" viewBox="0 0 16 16" fill="none" xmlns="http://www.w3.org/2000/svg">
<path fill-rule="evenodd" clip-rule="evenodd" d="M8 2C10.0011 2 11.8584 2.11265 13.5459 2.28809C14.9513 2.43465 16 3.62588 16 5.02539V10.9746C16 12.3897 14.9217 13.5696 13.5225 13.7148C11.5163 13.9228 9.66317 14 8 14C5.99888 14 4.14156 13.8874 2.4541 13.7119C1.04865 13.5653 0 12.3741 0 10.9746V5.02539C0 3.61027 1.07827 2.43044 2.47754 2.28516C4.48373 2.07723 6.33683 2 8 2ZM8 3.5C6.38317 3.5 4.58164 3.57429 2.63184 3.77637L2.63281 3.77734C1.99009 3.84407 1.5 4.38652 1.5 5.02539V10.9746C1.5 11.6189 1.9811 12.154 2.60938 12.2197C4.24992 12.3903 6.05512 12.5 8 12.5C8.63866 12.5 9.30604 12.4876 10 12.4609V3.53906C9.35135 3.51402 8.68433 3.5 8 3.5Z" fill="black"/>
</svg>

<!-- This Source Code Form is subject to the terms of the Mozilla Public
   - License, v. 2.0. If a copy of the MPL was not distributed with this
   - file, You can obtain one at http://mozilla.org/MPL/2.0/. -->
<svg xmlns="http://www.w3.org/2000/svg" width="16" height="16" fill="context-fill" fill-opacity="context-fill-opacity" viewBox="0 0 16 16">
    <path fill-rule="evenodd" d="M8 2c2.001 0 3.858.113 5.546.288A2.746 2.746 0 0 1 16 5.025v5.95a2.76 2.76 0 0 1-2.477 2.74 53.6 53.6 0 0 1-11.069-.003A2.746 2.746 0 0 1 0 10.975v-5.95a2.76 2.76 0 0 1 2.478-2.74A54 54 0 0 1 8 2m0 1.5c-1.617 0-3.418.074-5.368.276v.001A1.26 1.26 0 0 0 1.5 5.025v5.95c0 .644.481 1.179 1.11 1.245a52 52 0 0 0 7.39.24V3.54a52 52 0 0 0-2-.04" clip-rule="evenodd" />
</svg>
